X:72
T: Nachtigall als Warnerin
N: Q0137G
O: Mitteleuropa, Deutschland (BRD) , Hessen, Nassau
R: Ballade, Allegorie; lyrisch (?)
M: none
L: 1/8
K: C
G2 | c3cc2 | G4G2 | A4A2 | G4
G2 | G4c2 | B4d2 | d2c4
G2 | e4e2 | e2d2c2 | g4f2 | f6
G2 | g4g2 | g4f2 | f2e4

@@@ Tune index: 1570
